X: 516
T: Mai bianshi
%%abc-version 2.0
%%abcx-abcm2ps-target-version 5.9.1 (29 Sep 2008)
%%abc-creator hum2abc beta
%%abcx-conversion-date 2013/10/02 07:52:30
%%abc-edited-by Helmut Schaffrath
%%humdrum-veritas 1623323111
%%humdrum-veritas-data 4038873009
%%continueall 1
%%barnumbers 0
L: 1/8
M: 2/4
K: F
d fc2 [I:setbarnb 1]| 
d fc2 | 
df2A | 
c4 | 
A c d f | 
c AG2 | 
A c/ c/ c D | 
F4 | 
A> G F G | 
A GA2 | 
A c/ c/ c D | 
F4 |]  



